Sources/FrostedUI/Resources/Icons.xcassets/arrowFatUp24.imageset/arrow-fat-up-24.svg

<svg width="24" height="24" viewBox="0 0 24 24" fill="none" xmlns="http://www.w3.org/2000/svg" data-fui-icon="true">
  <path
    d="M10.6743 1.64099C11.3725 0.830306 12.6275 0.830428 13.3257 1.64099L19.6069 8.93396C20.3046 9.74414 19.729 11.0002 18.6597 11.0004H15.9995V20.2504C15.9994 21.2167 15.2159 22.0004 14.2495 22.0004H9.74951C8.7833 22.0001 7.99967 21.2166 7.99951 20.2504V11.0004H5.34033C4.27104 11.0004 3.69536 9.74422 4.39307 8.93396L10.6743 1.64099L11.8101 2.61951L5.88525 9.50037H8.74951C9.16367 9.50037 9.49944 9.83622 9.49951 10.2504V20.2504C9.49967 20.3882 9.61172 20.5001 9.74951 20.5004H14.2495C14.3875 20.5004 14.4994 20.3883 14.4995 20.2504V10.2504C14.4996 9.83634 14.8355 9.50057 15.2495 9.50037H18.1147L12.189 2.61951C12.0892 2.50397 11.9106 2.50414 11.811 2.61951L10.6743 1.64099Z"
    fill="currentColor"
  />
</svg>

<svg xmlns="http://www.w3.org/2000/svg" width="24" height="24" fill="none" data-fui-icon="true" viewBox="0 0 24 24"><path fill="currentColor" d="M10.674 1.641a1.75 1.75 0 0 1 2.652 0l6.28 7.293c.699.81.123 2.066-.946 2.066H16v9.25A1.75 1.75 0 0 1 14.25 22h-4.5A1.75 1.75 0 0 1 8 20.25V11H5.34c-1.069 0-1.645-1.256-.947-2.066zl1.136.979L5.885 9.5H8.75a.75.75 0 0 1 .75.75v10c0 .138.112.25.25.25h4.5a.25.25 0 0 0 .25-.25v-10a.75.75 0 0 1 .75-.75h2.865l-5.926-6.88a.25.25 0 0 0-.378 0z"/></svg>
